packages/kaspersky-hexa-ui-icons/src/iconsSVGs/16/Network.svg

<svg width="16" height="16" viewBox="0 0 16 16" fill="none" xmlns="http://www.w3.org/2000/svg">
<path fill-rule="evenodd" clip-rule="evenodd" d="M10.0188 2.77575C9.86642 1.79813 9.02079 1.05005 8.00044 1.05005C6.98009 1.05005 6.13447 1.79813 5.98211 2.77574C3.5187 3.61525 1.74683 5.94894 1.74683 8.69648C1.74683 9.10945 1.78686 9.51307 1.86325 9.90367C1.36028 10.2758 1.03418 10.8733 1.03418 11.547C1.03418 12.6752 1.94877 13.5898 3.07698 13.5898C3.36948 13.5898 3.64762 13.5283 3.89919 13.4176C4.99713 14.3722 6.43129 14.9501 8.00043 14.9501C9.56956 14.9501 11.0037 14.3722 12.1017 13.4176C12.3532 13.5283 12.6313 13.5898 12.9238 13.5898C14.052 13.5898 14.9666 12.6752 14.9666 11.547C14.9666 10.8733 14.6405 10.2758 14.1376 9.90369C14.214 9.51309 14.254 9.10946 14.254 8.69648C14.254 5.94896 12.4822 3.61527 10.0188 2.77575ZM7.25764 3.09285C7.25764 2.68261 7.5902 2.35005 8.00044 2.35005C8.41068 2.35005 8.74324 2.68261 8.74324 3.09285C8.74324 3.50309 8.41068 3.83565 8.00044 3.83565C7.5902 3.83565 7.25764 3.50309 7.25764 3.09285ZM6.20962 4.07648C4.35893 4.79435 3.04683 6.59219 3.04683 8.69648C3.04683 8.97163 3.06926 9.24153 3.11239 9.50447C4.22426 9.52337 5.11978 10.4306 5.11978 11.547C5.11978 11.9045 5.02792 12.2406 4.86652 12.5329C5.7203 13.2312 6.81144 13.6501 8.00043 13.6501C9.1894 13.6501 10.2805 13.2312 11.1343 12.5329C10.9729 12.2406 10.881 11.9045 10.881 11.547C10.881 10.4306 11.7766 9.52336 12.8885 9.50447C12.9316 9.24153 12.954 8.97163 12.954 8.69648C12.954 6.59219 11.6419 4.79437 9.79126 4.07649C9.44373 4.70785 8.77205 5.13565 8.00044 5.13565C7.22883 5.13565 6.55714 4.70784 6.20962 4.07648ZM12.181 11.547C12.181 11.1367 12.5136 10.8042 12.9238 10.8042C13.3341 10.8042 13.6666 11.1367 13.6666 11.547C13.6666 11.9572 13.3341 12.2898 12.9238 12.2898C12.5136 12.2898 12.181 11.9572 12.181 11.547ZM2.33418 11.547C2.33418 11.1367 2.66674 10.8042 3.07698 10.8042C3.48722 10.8042 3.81978 11.1367 3.81978 11.547C3.81978 11.9572 3.48722 12.2898 3.07698 12.2898C2.66674 12.2898 2.33418 11.9572 2.33418 11.547Z" fill="black"/>
</svg>

<svg xmlns="http://www.w3.org/2000/svg" width="16" height="16" fill="none" viewBox="0 0 16 16"><path fill="#000" fill-rule="evenodd" d="M10.0188 2.7758C9.8664 1.798 9.0208 1.05 8.0004 1.05c-1.0203 0-1.866.748-2.0183 1.7256-2.4634.8396-4.2353 3.1732-4.2353 5.9208 0 .413.04.8166.1165 1.2072-.503.3721-.8291.9696-.8291 1.6433 0 1.1282.9146 2.0428 2.0428 2.0428.2925 0 .5706-.0615.8222-.1722 1.098.9546 2.532 1.5325 4.1012 1.5325s3.0033-.5779 4.1013-1.5325c.2515.1107.5296.1722.8221.1722 1.1282 0 2.0428-.9146 2.0428-2.0428 0-.6737-.3261-1.2712-.829-1.6433a6.3 6.3 0 0 0 .1164-1.2072c0-2.7475-1.7718-5.0812-4.2352-5.9207m-2.7612.317a.7428.7428 0 1 1 1.4856 0 .7428.7428 0 0 1-1.4856 0m-1.048.9837c-1.8507.7178-3.1628 2.5157-3.1628 4.62 0 .2751.0225.545.0656.808 1.1119.0189 2.0074.9261 2.0074 2.0425 0 .3575-.0919.6936-.2533.9859a4.933 4.933 0 0 0 3.134 1.1172 4.933 4.933 0 0 0 3.1338-1.1172 2.034 2.034 0 0 1-.2533-.9859c0-1.1164.8956-2.0236 2.0075-2.0425a5 5 0 0 0 .0655-.808c0-2.1043-1.3121-3.9021-3.1627-4.62-.3476.6313-1.0192 1.0591-1.7909 1.0591s-1.4433-.4278-1.7908-1.0591m5.9714 7.4705a.7428.7428 0 1 1 1.4856 0 .7428.7428 0 0 1-1.4856 0m-9.8468 0a.743.743 0 0 1 .7428-.7428.7428.7428 0 1 1-.7428.7428"/></svg>
